material/.icons/material/forum-outline.svg

<svg xmlns="http://www.w3.org/2000/svg" viewBox="0 0 24 24"><path d="M15 4v7H5.17L4 12.17V4h11m1-2H3a1 1 0 00-1 1v14l4-4h10a1 1 0 001-1V3a1 1 0 00-1-1m5 4h-2v9H6v2a1 1 0 001 1h11l4 4V7a1 1 0 00-1-1z"/></svg>

<?xml version="1.0" encoding="UTF-8"?><!DOCTYPE svg PUBLIC "-//W3C//DTD SVG 1.1//EN" "http://www.w3.org/Graphics/SVG/1.1/DTD/svg11.dtd"><svg xmlns="http://www.w3.org/2000/svg" xmlns:xlink="http://www.w3.org/1999/xlink" version="1.1" id="mdi-forum-outline" width="24" height="24" viewBox="0 0 24 24"><path d="M15,4V11H5.17L4,12.17V4H15M16,2H3A1,1 0 0,0 2,3V17L6,13H16A1,1 0 0,0 17,12V3A1,1 0 0,0 16,2M21,6H19V15H6V17A1,1 0 0,0 7,18H18L22,22V7A1,1 0 0,0 21,6Z" /></svg>
